assets/icons/svg/sun.svg

<svg width="16" height="16" viewBox="0 0 16 16" xmlns="http://www.w3.org/2000/svg">
<path d="M10.127 5.87305C9.58716 5.33325 8.82544 4.98389 8 4.98389C7.17456 4.98389 6.41284 5.31714 5.87305 5.87305C5.33325 6.41284 4.98389 7.17456 4.98389 8C4.98389 8.82544 5.33325 9.58716 5.87305 10.127C6.41284 10.6667 7.17456 11.0161 8 11.0161C8.82544 11.0161 9.58716 10.6829 10.127 10.127C10.6667 9.58716 11.0161 8.82544 11.0161 8C11.0161 7.17456 10.6829 6.41284 10.127 5.87305ZM9.55566 9.55566C9.15869 9.95264 8.60352 10.1907 8 10.1907C7.39648 10.1907 6.84131 9.95264 6.44434 9.55566C6.04736 9.15869 5.80933 8.60352 5.80933 8C5.80933 7.39648 6.04736 6.84131 6.44434 6.44434C6.84131 6.04736 7.39648 5.80933 8 5.80933C8.60352 5.80933 9.15869 6.04736 9.55566 6.44434C9.95264 6.84131 10.1907 7.39648 10.1907 8C10.1907 8.60352 9.95264 9.15869 9.55566 9.55566Z"/>
<path d="M13.5876 7.58765H12.3652C12.1426 7.58765 11.9521 7.77808 11.9521 8C11.9521 8.22192 12.1426 8.41235 12.3652 8.41235H13.5876C13.8096 8.41235 14 8.22192 14 8C14 7.77808 13.8096 7.58765 13.5876 7.58765Z"/>
<path d="M8 11.9521C7.77808 11.9521 7.58765 12.1426 7.58765 12.3652V13.5876C7.58765 13.8096 7.77808 14 8 14C8.22192 14 8.41235 13.8096 8.41235 13.5876V12.3652C8.41235 12.1426 8.22192 11.9521 8 11.9521Z"/>
<path d="M12.2378 11.6665L11.3647 10.7935C11.2219 10.6353 10.9524 10.6353 10.7935 10.7935C10.6353 10.9524 10.6353 11.2065 10.7935 11.3647L11.6665 12.2378C11.8254 12.3967 12.0796 12.3967 12.2378 12.2378C12.3967 12.0796 12.3967 11.8254 12.2378 11.6665Z"/>
<path d="M8 2C7.77808 2 7.58765 2.19043 7.58765 2.41235V3.63477C7.58765 3.85742 7.77808 4.04785 8 4.04785C8.22192 4.04785 8.41235 3.85742 8.41235 3.63477V2.41235C8.41235 2.19043 8.22192 2 8 2Z"/>
<path d="M12.2539 3.76221C12.095 3.60327 11.8416 3.60327 11.6826 3.76221L10.8096 4.63525C10.6506 4.79346 10.6506 5.04761 10.8096 5.20654C10.9524 5.36475 11.2219 5.36475 11.3809 5.20654L12.2539 4.3335C12.4128 4.17456 12.4128 3.92041 12.2539 3.76221Z"/>
<path d="M3.63477 7.58765H2.41235C2.19043 7.58765 2 7.77808 2 8C2 8.22192 2.17432 8.41235 2.41235 8.41235H3.63477C3.85742 8.41235 4.04785 8.22192 4.04785 8C4.04785 7.77808 3.85742 7.58765 3.63477 7.58765Z"/>
<path d="M5.19043 10.7935C5.04761 10.6353 4.77808 10.6353 4.61914 10.7935L3.74609 11.6665C3.58716 11.8254 3.58716 12.0796 3.74609 12.2378C3.90503 12.3967 4.15845 12.3967 4.31738 12.2378L5.19043 11.3647C5.34937 11.2065 5.34937 10.9524 5.19043 10.7935Z"/>
<path d="M5.19043 4.63525L4.31738 3.76221C4.15845 3.60327 3.90503 3.60327 3.74609 3.76221C3.58716 3.92041 3.58716 4.17456 3.74609 4.3335L4.61914 5.20654C4.77808 5.36475 5.03149 5.36475 5.19043 5.20654C5.34937 5.04761 5.34937 4.79346 5.19043 4.63525Z"/>
</svg>

<svg xmlns="http://www.w3.org/2000/svg" width="16" height="16" viewBox="0 0 16 16">
  <path d="M10.127 5.873A3.026 3.026 0 0 0 8 4.983a2.96 2.96 0 0 0-2.127.89c-.54.54-.89 1.302-.89 2.127 0 .825.35 1.587.89 2.127.54.54 1.302.89 2.127.89a2.96 2.96 0 0 0 2.127-.89c.54-.54.89-1.302.89-2.127a2.96 2.96 0 0 0-.89-2.127Zm-.571 3.683A2.195 2.195 0 0 1 8 10.19a2.195 2.195 0 0 1-1.556-.635A2.195 2.195 0 0 1 5.81 8c0-.604.238-1.159.635-1.556A2.195 2.195 0 0 1 8 5.81c.604 0 1.159.238 1.556.635s.635.952.635 1.556c0 .604-.238 1.159-.635 1.556Zm4.032-1.968h-1.223a.42.42 0 0 0-.413.412c0 .222.19.412.413.412h1.223A.42.42 0 0 0 14 8a.42.42 0 0 0-.412-.412ZM8 11.952a.42.42 0 0 0-.412.413v1.223c0 .222.19.412.412.412a.42.42 0 0 0 .412-.412v-1.223A.42.42 0 0 0 8 11.952Zm4.238-.286-.873-.873c-.143-.158-.413-.158-.572 0a.403.403 0 0 0 0 .572l.873.873a.402.402 0 0 0 .572 0 .402.402 0 0 0 0-.572ZM8 2a.42.42 0 0 0-.412.412v1.223c0 .222.19.413.412.413a.42.42 0 0 0 .412-.413V2.412A.42.42 0 0 0 8 2Zm4.254 1.762a.402.402 0 0 0-.571 0l-.873.873a.402.402 0 0 0 0 .572c.143.158.412.158.57 0l.874-.873a.402.402 0 0 0 0-.572ZM3.635 7.588H2.412A.42.42 0 0 0 2 8a.41.41 0 0 0 .412.412h1.223A.42.42 0 0 0 4.048 8a.42.42 0 0 0-.413-.412Zm1.555 3.205c-.142-.158-.412-.158-.57 0l-.874.873a.402.402 0 0 0 0 .572.402.402 0 0 0 .571 0l.873-.873a.402.402 0 0 0 0-.572Zm0-6.158-.873-.873a.402.402 0 0 0-.57 0 .402.402 0 0 0 0 .572l.872.873a.403.403 0 1 0 .571-.572Z"/>
</svg>
